devices/symbolic/media-floppy-symbolic.svg

<svg xmlns="http://www.w3.org/2000/svg" viewBox="0 0 16 16">
  <defs id="defs3051">
    <style type="text/css" id="current-color-scheme">
      .ColorScheme-Text {
        color:#4d4d4d;
      }
      </style>
  </defs>
 <path 
     style="fill:#bebebe;fill-opacity:1;stroke:none" 
     class="ColorScheme-Text"
     d="M 1.1262207,0.5 C 0.78015988,0.5 0.5,0.78019672 0.5,1.1262207 l 0,13.7475583 C 0.5,15.21984 0.78015988,15.5 1.1262207,15.5 l 13.7475583,0 C 15.21984,15.5 15.5,15.21984 15.5,14.873779 l 0,-10.8361813 C 15.5,3.8714575 15.43443,3.7119854 15.316895,3.5944824 L 12.405518,0.68310547 C 12.288014,0.5656025 12.128616,0.5 11.962402,0.5 l -10.8361813,0 z m 1.8475342,1.4318848 8.6041261,0 0,4.5941162 -8.6041261,0 0,-4.5941162 z m 5.4125973,0.5548095 c -0.1153659,0 -0.20874,0.093412 -0.20874,0.2087403 l 0,3.0541992 c 0,0.1153659 0.093374,0.2087402 0.20874,0.2087402 l 1.587525,0 c 0.1153658,0 0.2087398,-0.093374 0.2087398,-0.2087402 l 0,-3.0541992 c 0,-0.1153291 -0.09337,-0.2087403 -0.2087398,-0.2087403 l -1.587525,0 z"
     />
</svg>

<svg xmlns="http://www.w3.org/2000/svg" viewBox="0 0 16 16">
  <path fill="#bebebe" d="M1.126.5a.626.626 0 0 0-.626.626v13.748c0 .346.28.626.626.626h13.748c.346 0 .626-.28.626-.626V4.038a.626.626 0 0 0-.183-.444L12.406.684A.626.626 0 0 0 11.962.5H1.126zm1.848 1.432h8.604v4.594H2.974V1.932zm5.412.555a.209.209 0 0 0-.208.208V5.75c0 .115.093.208.208.208h1.588a.209.209 0 0 0 .209-.208V2.695a.209.209 0 0 0-.21-.208H8.387z"/>
</svg>
